X: 31086
T: Paddy Fahey's
R: jig
M: 6/8
K: Cmajor
F|E/F/GC DEF|GcA Bcd|efd ga/g/e|fdc BGF|
E2 C EFD|GCD EFG|Bc/d/B cBG|FDB, CGF|
EGC DEF|GcA Bcd|efd ga/g/e|fdc BGF|
E2 C EFD|GCD EFG|Bc/d/B cBG|FDB, CEG|
|:cd/c/B Gce|gfa gec|Ad^c de/f/g|fdc BGF|
G,CE Gce|{a}gfa gec|AdB cBG|1 FDB, CEG:|2 FDB, CGF||
"Final ending, last four bars of Part B"|GCD EB,D|G,CE {G}F3|GBd cBG|FDB, C3||

